src/assets/img/action_and_leasing-list/icon6.svg

<svg width="50" height="50" viewBox="0 0 50 50" fill="none" xmlns="http://www.w3.org/2000/svg">
<path d="M49.2188 40.625C49.2188 39.3328 48.1672 38.2812 46.875 38.2812H34.375C34.0039 38.2812 33.657 38.3758 33.3445 38.5305C33.4992 38.218 33.5938 37.8711 33.5938 37.5V35.9375C33.5938 34.6453 32.5422 33.5938 31.25 33.5938H18.75C18.3789 33.5938 18.032 33.6883 17.7195 33.843C17.8742 33.5305 17.9688 33.1836 17.9688 32.8125V31.25C17.9688 30.6477 17.7336 30.1031 17.3594 29.6875C17.7344 29.2719 17.9688 28.7273 17.9688 28.125V26.7555C23.3914 25.0836 27.3438 20.0266 27.3438 14.0625C27.3438 12.7031 27.1367 11.3922 26.7555 10.1562H35.1562C36.4484 10.1562 37.5 11.2078 37.5 12.5V25.7812H36.3797C35.2742 25.7812 34.375 26.6805 34.375 27.7859C34.375 28.1484 34.4734 28.5055 34.6609 28.8172L38.7719 35.6695C39.1602 36.3164 39.8703 36.7188 40.625 36.7188C41.3797 36.7188 42.0898 36.3164 42.4781 35.6695L46.5898 28.8172C46.7766 28.5055 46.875 28.1492 46.875 27.7859C46.875 26.6805 45.9758 25.7812 44.8703 25.7812H43.75V10.9375C43.75 7.06094 40.5953 3.90625 36.7188 3.90625H22.6031C20.2922 1.95937 17.3141 0.78125 14.0625 0.78125C6.73906 0.78125 0.78125 6.73906 0.78125 14.0625C0.78125 18.1344 2.62734 21.7805 5.52187 24.2188H3.125C1.83281 24.2188 0.78125 25.2703 0.78125 26.5625V28.125C0.78125 28.7273 1.01641 29.2719 1.39062 29.6875C1.01641 30.1031 0.78125 30.6477 0.78125 31.25V32.8125C0.78125 33.4148 1.01641 33.9594 1.39062 34.375C1.01641 34.7906 0.78125 35.3352 0.78125 35.9375V37.5C0.78125 38.1023 1.01641 38.6469 1.39062 39.0625C1.01641 39.4781 0.78125 40.0227 0.78125 40.625V42.1875C0.78125 42.7898 1.01641 43.3344 1.39062 43.75C1.01641 44.1656 0.78125 44.7102 0.78125 45.3125V46.875C0.78125 48.1672 1.83281 49.2188 3.125 49.2188H15.625C16.2273 49.2188 16.7719 48.9836 17.1875 48.6094C17.6031 48.9844 18.1477 49.2188 18.75 49.2188H31.25C31.8523 49.2188 32.3969 48.9836 32.8125 48.6094C33.2281 48.9844 33.7727 49.2188 34.375 49.2188H46.875C48.1672 49.2188 49.2188 48.1672 49.2188 46.875V45.3125C49.2188 44.7102 48.9836 44.1656 48.6094 43.75C48.9844 43.3344 49.2188 42.7898 49.2188 42.1875V40.625ZM34.375 39.8438H35.1562V41.4062H36.7188V39.8438H38.2812V41.4062H39.8438V39.8438H41.4062V41.4062H42.9688V39.8438H44.5312V41.4062H46.0938V39.8438H46.875C47.3055 39.8438 47.6562 40.1945 47.6562 40.625V42.1875C47.6562 42.618 47.3055 42.9688 46.875 42.9688H34.375C33.9445 42.9688 33.5938 42.618 33.5938 42.1875V40.625C33.5938 40.1945 33.9445 39.8438 34.375 39.8438ZM18.75 42.9688C18.3195 42.9688 17.9688 42.618 17.9688 42.1875V40.625C17.9688 40.1945 18.3195 39.8438 18.75 39.8438H19.5312V41.4062H21.0938V39.8438H22.6562V41.4062H24.2188V39.8438H25.7812V41.4062H27.3438V39.8438H28.9062V41.4062H30.4688V39.8438H31.25C31.6805 39.8438 32.0312 40.1945 32.0312 40.625V42.1875C32.0312 42.618 31.6805 42.9688 31.25 42.9688H18.75ZM3.125 42.9688C2.69453 42.9688 2.34375 42.618 2.34375 42.1875V40.625C2.34375 40.1945 2.69453 39.8438 3.125 39.8438H3.90625V41.4062H5.46875V39.8438H7.03125V41.4062H8.59375V39.8438H10.1562V41.4062H11.7188V39.8438H13.2812V41.4062H14.8438V39.8438H15.625C16.0555 39.8438 16.4062 40.1945 16.4062 40.625V42.1875C16.4062 42.618 16.0555 42.9688 15.625 42.9688H3.125ZM2.34375 37.5V35.9375C2.34375 35.507 2.69453 35.1562 3.125 35.1562H3.90625V36.7188H5.46875V35.1562H7.03125V36.7188H8.59375V35.1562H10.1562V36.7188H11.7188V35.1562H13.2812V36.7188H14.8438V35.1562H15.625C16.0555 35.1562 16.4062 35.507 16.4062 35.9375V37.5C16.4062 37.9305 16.0555 38.2812 15.625 38.2812H3.125C2.69453 38.2812 2.34375 37.9305 2.34375 37.5ZM2.34375 32.8125V31.25C2.34375 30.8195 2.69453 30.4688 3.125 30.4688H3.90625V32.0312H5.46875V30.4688H7.03125V32.0312H8.59375V30.4688H10.1562V32.0312H11.7188V30.4688H13.2812V32.0312H14.8438V30.4688H15.625C16.0555 30.4688 16.4062 30.8195 16.4062 31.25V32.8125C16.4062 33.243 16.0555 33.5938 15.625 33.5938H3.125C2.69453 33.5938 2.34375 33.243 2.34375 32.8125ZM18.75 35.1562H19.5312V36.7188H21.0938V35.1562H22.6562V36.7188H24.2188V35.1562H25.7812V36.7188H27.3438V35.1562H28.9062V36.7188H30.4688V35.1562H31.25C31.6805 35.1562 32.0312 35.507 32.0312 35.9375V37.5C32.0312 37.9305 31.6805 38.2812 31.25 38.2812H18.75C18.3195 38.2812 17.9688 37.9305 17.9688 37.5V35.9375C17.9688 35.507 18.3195 35.1562 18.75 35.1562ZM42.1875 10.9375V27.3438H44.8703C45.1141 27.3438 45.3125 27.5422 45.3125 27.7859C45.3125 27.8664 45.2906 27.9445 45.2492 28.0133L41.1383 34.8656C40.9234 35.2242 40.3266 35.2242 40.1117 34.8656L36.0008 28.0141C35.9594 27.9453 35.9375 27.8664 35.9375 27.7859C35.9375 27.5422 36.1359 27.3438 36.3797 27.3438H39.0625V12.5C39.0625 10.3461 37.3102 8.59375 35.1562 8.59375H26.1516C25.6359 7.45859 24.9695 6.40703 24.1703 5.46875H36.7188C39.7344 5.46875 42.1875 7.92188 42.1875 10.9375ZM2.34375 14.0625C2.34375 7.60078 7.60078 2.34375 14.0625 2.34375C20.5242 2.34375 25.7812 7.60078 25.7812 14.0625C25.7812 20.5242 20.5242 25.7812 14.0625 25.7812C7.60078 25.7812 2.34375 20.5242 2.34375 14.0625ZM2.34375 26.5625C2.34375 26.132 2.69453 25.7812 3.125 25.7812H3.90625V27.3438H5.46875V25.7812H7.03125V27.3438H8.59375V26.1516C10.2641 26.9102 12.1117 27.3438 14.0625 27.3438C14.8633 27.3438 15.6438 27.2602 16.4062 27.1242V28.125C16.4062 28.5555 16.0555 28.9062 15.625 28.9062H3.125C2.69453 28.9062 2.34375 28.5555 2.34375 28.125V26.5625ZM15.625 47.6562H3.125C2.69453 47.6562 2.34375 47.3055 2.34375 46.875V45.3125C2.34375 44.882 2.69453 44.5312 3.125 44.5312H3.90625V46.0938H5.46875V44.5312H7.03125V46.0938H8.59375V44.5312H10.1562V46.0938H11.7188V44.5312H13.2812V46.0938H14.8438V44.5312H15.625C16.0555 44.5312 16.4062 44.882 16.4062 45.3125V46.875C16.4062 47.3055 16.0555 47.6562 15.625 47.6562ZM31.25 47.6562H18.75C18.3195 47.6562 17.9688 47.3055 17.9688 46.875V45.3125C17.9688 44.882 18.3195 44.5312 18.75 44.5312H19.5312V46.0938H21.0938V44.5312H22.6562V46.0938H24.2188V44.5312H25.7812V46.0938H27.3438V44.5312H28.9062V46.0938H30.4688V44.5312H31.25C31.6805 44.5312 32.0312 44.882 32.0312 45.3125V46.875C32.0312 47.3055 31.6805 47.6562 31.25 47.6562ZM47.6562 46.875C47.6562 47.3055 47.3055 47.6562 46.875 47.6562H34.375C33.9445 47.6562 33.5938 47.3055 33.5938 46.875V45.3125C33.5938 44.882 33.9445 44.5312 34.375 44.5312H35.1562V46.0938H36.7188V44.5312H38.2812V46.0938H39.8438V44.5312H41.4062V46.0938H42.9688V44.5312H44.5312V46.0938H46.0938V44.5312H46.875C47.3055 44.5312 47.6562 44.882 47.6562 45.3125V46.875Z" fill="#333333"/>
<path d="M13.2812 19.4398V21.0938H14.8438V19.4398C16.1844 19.1187 17.1875 17.918 17.1875 16.4797C17.1875 15.1641 16.3492 14.0016 15.1016 13.5852L13.5188 13.057C12.9086 12.8547 12.5 12.2867 12.5 11.6453C12.5 10.8242 13.168 10.1562 13.9891 10.1562H14.1359C14.957 10.1562 15.625 10.8242 15.625 11.6453V11.7188L17.1875 11.6453C17.1875 10.207 16.1844 9.00625 14.8438 8.68516V7.03125H13.2812V8.68516C11.9406 9.00625 10.9375 10.207 10.9375 11.6453C10.9375 12.9609 11.7758 14.1234 13.0234 14.5398L14.6062 15.068C15.2156 15.2711 15.6242 15.8383 15.6242 16.4805C15.625 17.3008 14.957 17.9688 14.1359 17.9688H13.9891C13.168 17.9688 12.5 17.3008 12.5 16.4797V15.625H10.9375V16.4797C10.9375 17.918 11.9406 19.1187 13.2812 19.4398Z" fill="#333333"/>
<path d="M14.0625 24.2188C19.6625 24.2188 24.2188 19.6625 24.2188 14.0625C24.2188 8.4625 19.6625 3.90625 14.0625 3.90625C8.4625 3.90625 3.90625 8.4625 3.90625 14.0625C3.90625 19.6625 8.4625 24.2188 14.0625 24.2188ZM14.0625 5.46875C18.8008 5.46875 22.6562 9.32422 22.6562 14.0625C22.6562 18.8008 18.8008 22.6562 14.0625 22.6562C9.32422 22.6562 5.46875 18.8008 5.46875 14.0625C5.46875 9.32422 9.32422 5.46875 14.0625 5.46875Z" fill="#333333"/>
</svg>

<svg width="50" height="50" fill="none" xmlns="http://www.w3.org/2000/svg"><path d="M49.219 40.625a2.347 2.347 0 00-2.344-2.344h-12.5c-.371 0-.718.095-1.03.25.154-.313.249-.66.249-1.031v-1.563a2.347 2.347 0 00-2.344-2.343h-12.5c-.371 0-.718.094-1.03.249.154-.313.249-.66.249-1.03V31.25c0-.602-.235-1.147-.61-1.563.375-.415.61-.96.61-1.562v-1.37c5.422-1.671 9.375-6.728 9.375-12.692 0-1.36-.207-2.67-.588-3.907h8.4A2.347 2.347 0 0137.5 12.5v13.281h-1.12a2.007 2.007 0 00-1.72 3.036l4.112 6.852a2.173 2.173 0 001.853 1.05c.755 0 1.465-.403 1.853-1.05l4.112-6.852a2.006 2.006 0 00-1.72-3.036h-1.12V10.938c0-3.877-3.155-7.032-7.031-7.032H22.603a13.213 13.213 0 00-8.54-3.125C6.739.781.78 6.74.78 14.062c0 4.072 1.846 7.719 4.74 10.157H3.126a2.347 2.347 0 00-2.344 2.343v1.563c0 .602.235 1.147.61 1.563-.375.415-.61.96-.61 1.562v1.563c0 .602.235 1.146.61 1.562-.375.416-.61.96-.61 1.563V37.5c0 .602.235 1.147.61 1.563-.375.415-.61.96-.61 1.562v1.563c0 .602.235 1.146.61 1.562-.375.416-.61.96-.61 1.563v1.562a2.347 2.347 0 002.344 2.344h12.5c.602 0 1.147-.235 1.563-.61.415.375.96.61 1.562.61h12.5c.602 0 1.147-.235 1.563-.61.415.375.96.61 1.562.61h12.5a2.347 2.347 0 002.344-2.344v-1.563c0-.602-.235-1.146-.61-1.562.375-.416.61-.96.61-1.563v-1.562zm-14.844-.781h.781v1.562h1.563v-1.562h1.562v1.562h1.563v-1.562h1.562v1.562h1.563v-1.562h1.562v1.562h1.563v-1.562h.781c.43 0 .781.35.781.781v1.563c0 .43-.35.78-.781.78h-12.5a.782.782 0 01-.781-.78v-1.563c0-.43.35-.781.781-.781zM18.75 42.969a.782.782 0 01-.781-.782v-1.562c0-.43.35-.781.781-.781h.781v1.562h1.563v-1.562h1.562v1.562h1.563v-1.562h1.562v1.562h1.563v-1.562h1.562v1.562h1.563v-1.562h.781c.43 0 .781.35.781.781v1.563c0 .43-.35.78-.781.78h-12.5zm-15.625 0a.783.783 0 01-.781-.782v-1.562c0-.43.35-.781.781-.781h.781v1.562H5.47v-1.562h1.56v1.562h1.563v-1.562h1.562v1.562h1.563v-1.562h1.562v1.562h1.563v-1.562h.781c.43 0 .781.35.781.781v1.563c0 .43-.35.78-.781.78h-12.5zM2.344 37.5v-1.563c0-.43.35-.78.781-.78h.781v1.562H5.47v-1.563h1.56v1.563h1.563v-1.563h1.562v1.563h1.563v-1.563h1.562v1.563h1.563v-1.563h.781c.43 0 .781.351.781.782V37.5c0 .43-.35.781-.781.781h-12.5a.782.782 0 01-.781-.781zm0-4.688V31.25c0-.43.35-.781.781-.781h.781v1.562H5.47V30.47h1.56v1.562h1.563V30.47h1.562v1.562h1.563V30.47h1.562v1.562h1.563V30.47h.781c.43 0 .781.35.781.781v1.563c0 .43-.35.78-.781.78h-12.5a.783.783 0 01-.781-.78zm16.406 2.344h.781v1.563h1.563v-1.563h1.562v1.563h1.563v-1.563h1.562v1.563h1.563v-1.563h1.562v1.563h1.563v-1.563h.781c.43 0 .781.351.781.782V37.5c0 .43-.35.781-.781.781h-12.5a.782.782 0 01-.781-.781v-1.563c0-.43.35-.78.781-.78zm23.438-24.218v16.406h2.682a.443.443 0 01.38.67l-4.112 6.852c-.215.358-.811.358-1.026 0L36 28.014a.443.443 0 01.379-.67h2.682V12.5a3.91 3.91 0 00-3.906-3.906h-9.004a13.298 13.298 0 00-1.982-3.125H36.72a5.475 5.475 0 015.468 5.468zM2.343 14.062c0-6.461 5.257-11.718 11.719-11.718 6.461 0 11.718 5.257 11.718 11.719 0 6.461-5.257 11.718-11.718 11.718-6.462 0-11.72-5.257-11.72-11.718zm0 12.5c0-.43.35-.78.781-.78h.781v1.562H5.47V25.78h1.56v1.563h1.563v-1.192a13.186 13.186 0 005.469 1.192c.8 0 1.58-.084 2.343-.22v1.001c0 .43-.35.781-.781.781h-12.5a.782.782 0 01-.781-.781v-1.563zm13.281 21.094h-12.5a.782.782 0 01-.781-.781v-1.563c0-.43.35-.78.781-.78h.781v1.562H5.47V44.53h1.56v1.563h1.563V44.53h1.562v1.563h1.563V44.53h1.562v1.563h1.563V44.53h.781c.43 0 .781.351.781.782v1.562c0 .43-.35.781-.781.781zm15.625 0h-12.5a.782.782 0 01-.781-.781v-1.563c0-.43.35-.78.781-.78h.781v1.562h1.563V44.53h1.562v1.563h1.563V44.53h1.562v1.563h1.563V44.53h1.562v1.563h1.563V44.53h.781c.43 0 .781.351.781.782v1.562c0 .43-.35.781-.781.781zm16.406-.781c0 .43-.35.781-.781.781h-12.5a.782.782 0 01-.781-.781v-1.563c0-.43.35-.78.781-.78h.781v1.562h1.563V44.53h1.562v1.563h1.563V44.53h1.562v1.563h1.563V44.53h1.562v1.563h1.563V44.53h.781c.43 0 .781.351.781.782v1.562z" fill="#333"/><path d="M13.281 19.44v1.654h1.563V19.44a3.05 3.05 0 002.344-2.96 3.047 3.047 0 00-2.086-2.895l-1.583-.528a1.485 1.485 0 01-1.019-1.412c0-.82.668-1.489 1.49-1.489h.146a1.49 1.49 0 011.489 1.49v.073l1.563-.074a3.05 3.05 0 00-2.344-2.96V7.031H13.28v1.654a3.05 3.05 0 00-2.344 2.96 3.05 3.05 0 002.086 2.895l1.583.528a1.49 1.49 0 01-.47 2.9h-.147A1.49 1.49 0 0112.5 16.48v-.855h-1.563v.855a3.05 3.05 0 002.344 2.96z" fill="#333"/><path d="M14.063 24.219c5.6 0 10.156-4.556 10.156-10.157 0-5.6-4.556-10.156-10.157-10.156-5.6 0-10.156 4.556-10.156 10.156 0 5.6 4.556 10.157 10.156 10.157zm0-18.75c4.738 0 8.593 3.855 8.593 8.593 0 4.739-3.855 8.594-8.593 8.594-4.739 0-8.594-3.855-8.594-8.593 0-4.739 3.855-8.594 8.593-8.594z" fill="#333"/></svg>
